X:1
T:Title
%%score { ( 1 3 ) | ( 2 4 ) }
L:1/8
Q:1/4=113
M:12/8
K:Bb
V:1 treble nm="Grand Piano"
V:3 treble 
V:2 bass 
V:4 bass 
V:1
 [DF]2 [DF] [DF]2 [DF] [EG]3 [EG]3 | [DF]2 [DF] [FB]2 c d6 | e2 d c2 =B c2 c c3 | %3
w: J.~H.~Tenney * * * * *|||
 [Fd]2 [Ec] [DB]2 [EG] [DF]6 | [DF]2 [DF] [DF]2 [DF] G2 G G3 | [DF]2 [DF] [FB]2 c d6 | %6
w: |||
 [Ge]2 [Ge] [Ge]2 [Ge] [Fd]3 [DB]3 | c2 c d2 c [DB]6 | d6- d3/2 z/ z z3 | B3 B3 F3 z3 | %10
w: ||||
 c2 c c2 c c6 | [Fd]2 [Fd] [Fd]2 [Fd] [Fd]6 | d2- [Fd-] [Fd-]2 [Fd-] [F-d]>Fc B2 A | c3 B3 A3 z3 | %14
w: ||||
 F3- F2 B d3 c3 | B12 |] %16
w: ||
V:2
 [B,,B,]2 [B,,B,] [B,,B,]2 [B,,B,] [E,B,]3 [E,B,]3 | %1
 [B,,B,]2 [B,,B,] [D,B,]2[K:treble] [F,A,F] [B,F]6 | %2
 [F,CF]2 [F,B,F] [F,A,F]2[K:bass] [F,_A,F] [F,=A,F]2 [F,A,F] [F,A,F]3 | %3
 [B,,B,]2 [B,,F,] [B,,F,]2 [B,,B,] [B,,B,]6 | %4
 [B,,B,]2 [B,,B,] [B,,B,]2 [B,,B,] [E,B,E]2 [E,B,E] [E,B,E]3 | %5
 [B,,B,]2 [B,,B,] [D,B,]2[K:treble] [F,A,F] [B,F]6 | %6
 [E,B,]2 [E,B,] [E,B,]2 [E,B,] [B,,B,]3 [B,,F,]3 | [F,A,E]2 [F,A,E] [F,A,F]2 [F,E] [B,,F,]6 | %8
 [B,,B,]2 [B,,B,] [B,,B,]2 [B,,B,] .[B,,B,]3 z3 | [B,,F,]2 [B,,F,] [B,,F,]2 B,, B,,2 B,, [B,,F,]3 | %10
 [F,A,E]2 [F,A,E] [F,A,E]2 [F,A,E] [F,A,E]6 | [B,,B,]2 [B,,B,] [B,,B,]2 [B,,B,] [B,,B,]6 | %12
 [B,,B,]2 [B,,B,] [B,,B,]2 [B,,B,] .[B,,B,]3 z3 | %13
 [E,G,E]2 [E,G,] [E,B,]2 [E,B,] [E,B,F]2 [E,B,] [E,B,E]3 | %14
 [F,B,D]3- [F,B,D]2 [F,B,D] [F,B,F]3 [F,A,E]3 | z3 G,2 G, F,6 |] %16
V:3
 x12 | x12 | x12 | x12 | x12 | x12 | x12 | x12 | F2 F F2 F F2 e d2 c | %9
 D2 D D2 [F,D] [B,D]2 [B,D] [DB]3 | x12 | x12 | .F3 z3 z6 | z2 E G2 G z2 F G3 | x12 | %15
 [B,D]3 E2 E D6 |] %16
V:4
 x12 | x5[K:treble] x7 | x5[K:bass] x7 | x12 | x12 | x5[K:treble] x7 | x12 | x12 | x12 | x12 | %10
 x12 | x12 | x12 | x12 | x12 | B,,12 |] %16

